logos/dolt.svg

<?xml version="1.0" encoding="UTF-8" standalone="no"?>
<svg
   width="72"
   height="72"
   viewBox="0 0 72 72"
   fill="none"
   version="1.1"
   id="svg18"
   sodipodi:docname="dolt-72-white.svg"
   inkscape:version="1.1 (c68e22c387, 2021-05-23)"
   xmlns:inkscape="http://www.inkscape.org/namespaces/inkscape"
   xmlns:sodipodi="http://sodipodi.sourceforge.net/DTD/sodipodi-0.dtd"
   xmlns="http://www.w3.org/2000/svg"
   xmlns:svg="http://www.w3.org/2000/svg">
  <defs
     id="defs22" />
  <sodipodi:namedview
     id="namedview20"
     pagecolor="#ffffff"
     bordercolor="#666666"
     borderopacity="1.0"
     inkscape:pageshadow="2"
     inkscape:pageopacity="0.0"
     inkscape:pagecheckerboard="0"
     showgrid="false"
     width="72px"
     inkscape:zoom="8.9018405"
     inkscape:cx="37.070986"
     inkscape:cy="27.971744"
     inkscape:window-width="3714"
     inkscape:window-height="2126"
     inkscape:window-x="115"
     inkscape:window-y="-11"
     inkscape:window-maximized="1"
     inkscape:current-layer="svg18" />
  <path
     d="m 13.046245,25.468238 v 17.035863 c -0.002,0.411004 -0.163261,0.804585 -0.448704,1.095383 -0.285487,0.290797 -0.672177,0.455242 -1.076072,0.4577 H 4.9820864 c -0.4055186,0 -0.7945399,-0.163348 -1.0819973,-0.454409 C 3.6126273,43.311758 3.4501214,42.916729 3.4480938,42.504101 v -9.25627 c 0.00203,-0.412628 0.1645335,-0.807657 0.4519953,-1.098674 0.2874574,-0.291061 0.6764787,-0.454409 1.0819973,-0.454409 H 10.12401"
     stroke="#29e3c1"
     stroke-width="5.55609"
     stroke-linecap="round"
     stroke-linejoin="round"
     id="path2"
     style="fill:#ffffff;stroke:#ffffff" />
  <path
     d="M 68.971823,44.05714 H 64.13676"
     stroke="#29e3c1"
     stroke-width="5.55609"
     stroke-linecap="round"
     stroke-linejoin="round"
     id="path4"
     style="fill:#ffffff;stroke:#ffffff" />
  <path
     d="M 68.851572,31.823118 H 59.261321"
     stroke="#29e3c1"
     stroke-width="5.55609"
     stroke-linecap="round"
     stroke-linejoin="round"
     id="path6"
     style="fill:#ffffff;stroke:#ffffff" />
  <path
     d="M 64.160021,25.46995 V 44.05736"
     stroke="#29e3c1"
     stroke-width="5.55609"
     stroke-linecap="round"
     stroke-linejoin="round"
     id="path8"
     style="fill:#ffffff;stroke:#ffffff" />
  <path
     d="m 32.095613,25.747892 h -5.804622 c -1.045439,0 -1.892946,0.862373 -1.892946,1.926165 v 14.366682 c 0,1.063784 0.847507,1.926169 1.892946,1.926169 h 5.804622 c 1.045439,0 1.892946,-0.862385 1.892946,-1.926169 V 27.674057 c 0,-1.063792 -0.847507,-1.926165 -1.892946,-1.926165 z"
     stroke="#29e3c1"
     stroke-width="5.55609"
     stroke-linecap="round"
     stroke-linejoin="round"
     id="path10"
     style="fill:#ffffff;stroke:#ffffff" />
  <path
     d="M 52.859042,44.05714 H 44.007853"
     stroke="#29e3c1"
     stroke-width="5.55609"
     stroke-linecap="round"
     stroke-linejoin="round"
     id="path12"
     style="fill:#ffffff;stroke:#ffffff" />
  <path
     d="M 48.802979,25.46995 V 44.05736"
     stroke="#29e3c1"
     stroke-width="5.55609"
     stroke-linecap="round"
     stroke-linejoin="round"
     id="path14"
     style="fill:#ffffff;stroke:#ffffff" />
  <path
     d="M 48.601097,25.448094 H 43.733952"
     stroke="#29e3c1"
     stroke-width="5.55609"
     stroke-linecap="round"
     stroke-linejoin="round"
     id="path16"
     style="fill:#ffffff;stroke:#ffffff" />
</svg>

<svg width="72" height="72" fill="none" xmlns="http://www.w3.org/2000/svg"><path d="M13.046 25.468v17.036a1.575 1.575 0 0 1-.448 1.095 1.52 1.52 0 0 1-1.077.458H4.982a1.52 1.52 0 0 1-1.082-.454 1.575 1.575 0 0 1-.452-1.099v-9.256c.002-.413.165-.808.452-1.099a1.52 1.52 0 0 1 1.082-.454h5.142M68.972 44.057h-4.835M68.852 31.823h-9.59M64.16 25.47v18.587M32.096 25.748H26.29c-1.045 0-1.893.862-1.893 1.926v14.367c0 1.064.848 1.926 1.893 1.926h5.805c1.045 0 1.893-.862 1.893-1.926V27.674c0-1.064-.848-1.926-1.893-1.926zM52.859 44.057h-8.851M48.803 25.47v18.587M48.601 25.448h-4.867" stroke="#29e3c1" stroke-width="5.556" stroke-linecap="round" stroke-linejoin="round" style="fill:#fff;stroke:#fff"/></svg>
